X: 217
T: Le Ramage
%R: hornpipe
B: "Twenty Four Country Dances for the Year 1793", Preston & Son, eds. p.89
F: http://www.vwml.org/browse/browse-collections-dance-tune-books/browse-prestons1793# 2014-8-7
Z: 2014 John Chambers <jc:trillian.mit.edu>
M: C|
L: 1/16
K: A
c2 |\
A,3B,C3D E3FE3C | A,3CE3C E2A2A2c2 | A,3B,C3D E3FE2C2 | B,2c2 dcBA G2B2B2c2 |
A,3B,C3D E3FE3C | A,3CE3C E2A4cd | e2c2A2E2 F2d2Tf3e | d3cB2A2 G2B4 |]
c2 |\
A3Ac3A e3Ac3A | E3Ac3A fedc B2c2 | A3Ac3A e3Ac3A | F3A FEDC B,2B4c2 |
A3Ac3A e3Ac3A | E3Ac3A fedc B2c2 | A3cA3E F3AF3D | {F}E3D{D}C3B, A,2A4 |]
% = = = = = = = = = = = = = = = = = = = = = = = = =
%%begintext align
%% The 1st Lady set to the 2d Gent.n & turn, at the same time the 1st
%% Gent.n sets to the 2d Lady & turn .| the 1st Lady set to the 3d
%% Gent.n & turn, at the same time the 1st Gent.n sets to the 3d Lady
%% & turn :| Lead up to the top foot it & cast off :|. Right & left
%% at top :|:
%%endtext
% = = = = = = = = = = = = = = = = = = = = = = = = =

%%sep 1 1 500
%%sep 1 1 500
